X:15
T:Seigneur que ta parole - A51
C:Y.V. Le Gall
M:6/8
K:Am
E|E2AA2G|A3B2G|A2GE2F|G3-G2:|G|cdc BcB|A3G2A|
G2DE2F|E3-E2.|E|E2AA2G|A3B2c|B2AA2G|A3-A2||
